Origami/22x22/apps/zandronum.svg

<svg width="22" height="22" version="1.1" viewBox="0 0 22 22" xmlns="http://www.w3.org/2000/svg">
 <path d="m2.0025733 7.6933593v3.8066407c0 0.844965-0.067831 2.299504 0.493023 2.976562 0.9328646 1.55065 2.9319177 4.906287 3.6991377 6.442383 0.250389 0.459438 0.8061094 0.581054 1.507381 0.581055h3.297885 3.297885c0.701272-1e-6 1.256992-0.121617 1.507381-0.581055 0.76722-1.536096 2.766273-4.891733 3.699138-6.442383 0.560853-0.677058 0.493023-2.131597 0.493023-2.976562v-3.8066407c0-3.1933594-3.998857-6.1933593-8.997427-6.1933593-4.9985705 0-8.9974267 2.9999999-8.9974267 6.1933593z" style="opacity:.2"/>
 <path d="m2.0025733 7.1933593v3.8066407c0 0.844965-0.067831 2.299504 0.493023 2.976562 0.9328646 1.55065 2.9319177 4.906287 3.6991377 6.442383 0.250389 0.459438 0.8061094 0.581054 1.507381 0.581055h3.297885 3.297885c0.701272-1e-6 1.256992-0.121617 1.507381-0.581055 0.76722-1.536096 2.766273-4.891733 3.699138-6.442383 0.560853-0.677058 0.493023-2.131597 0.493023-2.976562v-3.8066407c0-3.1933594-3.998857-6.1933593-8.997427-6.1933593-4.9985705 0-8.9974267 2.9999999-8.9974267 6.1933593z" style="fill:#6e6e6e"/>
 <path d="m3.2597657 10.974609c-0.5830254 0.004002-1.1671816 0.011696-1.2578124 0.025391v0.5c0 0.07382 5.827e-4 0.171706 0 0.253906 0.00848 0.791635 0.078157 1.720485 0.4941407 2.222656 0.9328646 1.55065 2.9319986 4.905311 3.6992186 6.441407 0.250389 0.459438 0.8045879 0.58203 1.5058594 0.582031h3.298828 3.298828c0.701272-1e-6 1.255471-0.122593 1.50586-0.582031 0.767219-1.536096 2.766353-4.890757 3.699218-6.441407 0.412005-0.497369 0.48455-1.412586 0.494141-2.199218-6.44e-4 -0.09053-2e-3 -0.196708-2e-3 -0.277344v-0.5c-0.104854 6e-6 -2.191528 0.0029-2.283203 0.0078-1.366127 0.073233-1.876314 0.694992-2.712844 1.9922-0.784915 1.344642-0.859827 3.522326-1.251953 4.5-0.551882-1.886919-0.248047-5.5-2.748047-5.5s-2.1961647 3.613081-2.7480467 5.5c-0.392126-0.977674-0.4670387-3.155358-1.2519532-4.5-0.5433849-0.913308-1.3021491-1.948372-2.4941406-2.023438-0.080372-0.0051-0.6617097-0.0061-1.2460937-2e-3z" style="opacity:.2"/>
 <path d="m4 10.5v1c1.490035-0.231421 2.3833375 0.963529 2.9999999 2 0.7849145 1.344642 0.859827 3.522326 1.2519531 4.5 0.551882-1.886919 0.248047-5.5 2.748047-5.5s2.196165 3.613081 2.748047 5.5c0.392126-0.977674 0.467038-3.155358 1.251953-4.5 0.892736-1.384366 1.413547-2 3-2v-1h-7z" style="opacity:.2"/>
 <path d="m4 10v1c1.490035-0.231421 2.3833375 0.963529 2.9999999 2 0.7849145 1.344642 0.859827 3.522326 1.2519531 4.5 0.551882-1.886919 0.248047-5.5 2.748047-5.5s2.196165 3.613081 2.748047 5.5c0.392126-0.977674 0.467038-3.155358 1.251953-4.5 0.892736-1.384366 1.413547-2 3-2v-1h-7z" style="fill:#7ac4eb"/>
 <path d="m11 1c-4.9985705 0-8.9970703 2.9999998-8.9970703 6.1933593v0.5c0-3.1933594 3.9984998-6.1933593 8.9970703-6.1933593 4.99857 0 8.99707 2.9999999 8.99707 6.1933593v-0.5c0-3.1933595-3.9985-6.1933593-8.99707-6.1933593zm-8.9970703 10.921875c0 0.220189-0.00311 0.41766 0 0.603515 2.071e-4 -0.03637 0-0.06595 0-0.103515v-0.5zm17.99414 0v0.5c0 0.03757-2.07e-4 0.06714 0 0.103515 0.0031-0.185855 0-0.383326 0-0.603515z" style="fill:#ffffff;opacity:.1"/>
 <path d="m4 10v0.5h7 7v-0.5h-7-7z" style="fill:#ffffff;opacity:.1"/>
 <path d="M 11,12 C 8.5,12 8.8038353,15.613081 8.2519533,17.5 L 7.7695313,21 11,21 14.228516,21 13.748047,17.5 C 13.196165,15.613081 13.5,12 11,12 Z" style="opacity:.15"/>
</svg>

<svg xmlns="http://www.w3.org/2000/svg" width="22" height="22" version="1.1" viewBox="0 0 22 22">
 <path style="opacity:0.2" d="m 2.0025733,7.6933593 0,3.8066407 c 0,0.844965 -0.067831,2.299504 0.493023,2.976562 0.9328646,1.55065 2.9319177,4.906287 3.6991377,6.442383 C 6.445123,21.378383 7.0008434,21.499999 7.702115,21.5 L 11,21.5 l 3.297885,0 c 0.701272,-1e-6 1.256992,-0.121617 1.507381,-0.581055 0.76722,-1.536096 2.766273,-4.891733 3.699138,-6.442383 0.560853,-0.677058 0.493023,-2.131597 0.493023,-2.976562 l 0,-3.8066407 C 19.997427,4.4999999 15.99857,1.5 11,1.5 6.0014295,1.5 2.0025733,4.4999999 2.0025733,7.6933593 Z"/>
 <path style="fill:#6e6e6e" d="m 2.0025733,7.1933593 0,3.8066407 c 0,0.844965 -0.067831,2.299504 0.493023,2.976562 0.9328646,1.55065 2.9319177,4.906287 3.6991377,6.442383 C 6.445123,20.878383 7.0008434,20.999999 7.702115,21 L 11,21 l 3.297885,0 c 0.701272,-1e-6 1.256992,-0.121617 1.507381,-0.581055 0.76722,-1.536096 2.766273,-4.891733 3.699138,-6.442383 C 20.065257,13.299504 19.997427,11.844965 19.997427,11 l 0,-3.8066407 C 19.997427,3.9999999 15.99857,1 11,1 6.0014295,1 2.0025733,3.9999999 2.0025733,7.1933593 Z"/>
 <path style="opacity:0.2" d="M 3.2597657,10.974609 C 2.6767403,10.978611 2.0925841,10.986305 2.0019533,11 l 0,0.5 c 0,0.07382 5.827e-4,0.171706 0,0.253906 0.00848,0.791635 0.078157,1.720485 0.4941407,2.222656 0.9328646,1.55065 2.9319986,4.905311 3.6992186,6.441407 C 6.4457016,20.877407 6.9999005,20.999999 7.701172,21 L 11,21 l 3.298828,0 c 0.701272,-1e-6 1.255471,-0.122593 1.50586,-0.582031 0.767219,-1.536096 2.766353,-4.890757 3.699218,-6.441407 0.412005,-0.497369 0.48455,-1.412586 0.494141,-2.199218 -6.44e-4,-0.09053 -0.002,-0.196708 -0.002,-0.277344 l 0,-0.5 c -0.104854,6e-6 -2.191528,0.0029 -2.283203,0.0078 C 16.346717,11.081033 15.83653,11.702792 15,13 14.215085,14.344642 14.140173,16.522326 13.748047,17.5 13.196165,15.613081 13.5,12 11,12 8.5,12 8.8038353,15.613081 8.2519533,17.5 7.8598273,16.522326 7.7849146,14.344642 7.0000001,13 6.4566152,12.086692 5.697851,11.051628 4.5058595,10.976562 c -0.080372,-0.0051 -0.6617097,-0.0061 -1.2460937,-0.002 z"/>
 <path style="opacity:0.2" d="m 4,10.5 0,1 c 1.490035,-0.231421 2.3833375,0.963529 2.9999999,2 0.7849145,1.344642 0.859827,3.522326 1.2519531,4.5 C 8.803835,16.113081 8.5,12.5 11,12.5 c 2.5,0 2.196165,3.613081 2.748047,5.5 0.392126,-0.977674 0.467038,-3.155358 1.251953,-4.5 0.892736,-1.384366 1.413547,-2 3,-2 l 0,-1 -7,0 z"/>
 <path style="fill:#7ac4eb" d="m 4,10 0,1 c 1.490035,-0.231421 2.3833375,0.963529 2.9999999,2 0.7849145,1.344642 0.859827,3.522326 1.2519531,4.5 C 8.803835,15.613081 8.5,12 11,12 c 2.5,0 2.196165,3.613081 2.748047,5.5 C 14.140173,16.522326 14.215085,14.344642 15,13 c 0.892736,-1.384366 1.413547,-2 3,-2 l 0,-1 -7,0 z"/>
 <path style="opacity:0.1;fill:#ffffff" d="M 11,1 C 6.0014295,1 2.0029297,3.9999998 2.0029297,7.1933593 l 0,0.5 C 2.0029297,4.4999999 6.0014295,1.5 11,1.5 c 4.99857,0 8.99707,2.9999999 8.99707,6.1933593 l 0,-0.5 C 19.99707,3.9999998 15.99857,1 11,1 Z M 2.0029297,11.921875 c 0,0.220189 -0.00311,0.41766 0,0.603515 2.071e-4,-0.03637 0,-0.06595 0,-0.103515 l 0,-0.5 z m 17.9941403,0 0,0.5 c 0,0.03757 -2.07e-4,0.06714 0,0.103515 0.0031,-0.185855 0,-0.383326 0,-0.603515 z"/>
 <path style="opacity:0.1;fill:#ffffff" d="m 4,10 0,0.5 7,0 7,0 0,-0.5 -7,0 -7,0 z"/>
 <path style="opacity:0.15" d="M 11,12 C 8.5,12 8.8038353,15.613081 8.2519533,17.5 L 7.7695313,21 11,21 14.228516,21 13.748047,17.5 C 13.196165,15.613081 13.5,12 11,12 Z"/>
</svg>
